packages/astro-components-stencil/src/icons/call-end.svg

<svg width="24" height="24" viewBox="0 0 24 24" fill="none" xmlns="http://www.w3.org/2000/svg">
<path d="M4.50997 15.4801L6.50997 13.8901C6.98997 13.5101 7.26997 12.9301 7.26997 12.3201V9.72011C10.29 8.74011 13.56 8.73011 16.59 9.72011V12.3301C16.59 12.9401 16.87 13.5201 17.35 13.9001L19.34 15.4801C20.14 16.1101 21.28 16.0501 22 15.3301L23.22 14.1101C24.02 13.3101 24.02 11.9801 23.17 11.2301C16.76 5.57011 7.09997 5.57011 0.689974 11.2301C-0.160026 11.9801 -0.160026 13.3101 0.639974 14.1101L1.85997 15.3301C2.56997 16.0501 3.70997 16.1101 4.50997 15.4801Z" fill="black"/>
</svg>

<svg xmlns="http://www.w3.org/2000/svg" viewBox="0 0 24 24"><g xmlns="http://www.w3.org/2000/svg" id="call-end" fill-rule="nonzero">
            <path d="M4.51 15.48l2-1.59c.48-.38.76-.96.76-1.57v-2.6c3.02-.98 6.29-.99 9.32 0v2.61c0 .61.28 1.19.76 1.57l1.99 1.58c.8.63 1.94.57 2.66-.15l1.22-1.22c.8-.8.8-2.13-.05-2.88-6.41-5.66-16.07-5.66-22.48 0-.85.75-.85 2.08-.05 2.88l1.22 1.22c.71.72 1.85.78 2.65.15z"/>
        </g></svg>
